public/images/contacts/us-flag.svg

<svg width="24" height="24" viewBox="0 0 24 24" fill="none" xmlns="http://www.w3.org/2000/svg">
<path d="M22.2026 4.13814H1.79742C0.804703 4.13814 0 4.94284 0 5.93556V18.0649C0 19.0576 0.804703 19.8623 1.79742 19.8623H22.2026C23.1952 19.8623 24 19.0576 24 18.0649V5.93556C24 4.94284 23.1953 4.13814 22.2026 4.13814Z" fill="#F5F5F5"/>
<path d="M0.0987549 5.3477H23.901C23.6574 4.64378 22.9892 4.13814 22.2025 4.13814H1.79732C1.01057 4.13814 0.342364 4.64378 0.0987549 5.3477Z" fill="#FF4B55"/>
<path d="M24 8.9765H0V10.186H24V8.9765Z" fill="#FF4B55"/>
<path d="M24 6.55704H0V7.76655H24V6.55704Z" fill="#FF4B55"/>
<path d="M0 12.1911C0 12.4196 0.185297 12.6049 0.413813 12.6049H24V11.3954H0V12.1911Z" fill="#FF4B55"/>
<path d="M24 16.2341H0V17.4436H24V16.2341Z" fill="#FF4B55"/>
<path d="M23.901 18.6526H0.0987549C0.342364 19.3565 1.01061 19.8622 1.79732 19.8622H22.2025C22.9892 19.8622 23.6574 19.3565 23.901 18.6526Z" fill="#FF4B55"/>
<path d="M24 13.8146H0V15.0241H24V13.8146Z" fill="#FF4B55"/>
<path d="M0.413813 12.605H10.7587C10.9872 12.605 11.1725 12.4197 11.1725 12.1912V4.5519C11.1725 4.32334 10.9872 4.13809 10.7587 4.13809H1.79742C0.804703 4.13814 0 4.94284 0 5.93556V12.1912C0 12.4197 0.185297 12.605 0.413813 12.605Z" fill="#41479B"/>
<path d="M1.16259 5.08777L1.25418 5.36246L1.54373 5.36466C1.58123 5.36499 1.59675 5.4128 1.56661 5.43507L1.33368 5.60705L1.42106 5.8831C1.4324 5.91882 1.39167 5.94845 1.36115 5.9266L1.12561 5.75827L0.890061 5.92665C0.859546 5.94849 0.818905 5.91887 0.830155 5.88315L0.91753 5.6071L0.684609 5.43512C0.654468 5.4128 0.669984 5.36499 0.707483 5.36471L0.997029 5.36251L1.08862 5.08782C1.10044 5.0522 1.15069 5.0522 1.16259 5.08777Z" fill="#F5F5F5"/>
<path d="M1.16259 6.52467L1.25418 6.79936L1.54373 6.80156C1.58123 6.80189 1.59675 6.84966 1.56661 6.87197L1.33368 7.044L1.42106 7.32005C1.4324 7.35577 1.39167 7.3854 1.36115 7.36355L1.12561 7.19522L0.890061 7.3636C0.859546 7.3854 0.818905 7.35582 0.830155 7.3201L0.91753 7.04405L0.684609 6.87202C0.654468 6.8497 0.669984 6.80194 0.707483 6.80161L0.997029 6.7994L1.08862 6.52471C1.10044 6.48914 1.15069 6.48914 1.16259 6.52467Z" fill="#F5F5F5"/>
<path d="M1.16259 7.96161L1.25418 8.23629L1.54373 8.2385C1.58123 8.23883 1.59675 8.28659 1.56661 8.3089L1.33368 8.48094L1.42106 8.75698C1.4324 8.7927 1.39167 8.82233 1.36115 8.80048L1.12561 8.63216L0.890061 8.80053C0.859546 8.82233 0.818905 8.7928 0.830155 8.75703L0.91753 8.48098L0.684609 8.30895C0.654468 8.28664 0.669984 8.23887 0.707483 8.23854L0.997029 8.23634L1.08862 7.96165C1.10044 7.92603 1.15069 7.92603 1.16259 7.96161Z" fill="#F5F5F5"/>
<path d="M1.16259 9.39874L1.25418 9.67342L1.54373 9.67563C1.58123 9.67596 1.59675 9.72377 1.56661 9.74603L1.33368 9.91806L1.42106 10.1941C1.4324 10.2298 1.39167 10.2594 1.36115 10.2376L1.12561 10.0693L0.890061 10.2377C0.859546 10.2594 0.818905 10.2299 0.830155 10.1942L0.91753 9.91811L0.684609 9.74608C0.654468 9.72386 0.669984 9.676 0.707483 9.67567L0.997029 9.67347L1.08862 9.39879C1.10044 9.36316 1.15069 9.36316 1.16259 9.39874Z" fill="#F5F5F5"/>
<path d="M1.16259 10.8353L1.25418 11.11L1.54373 11.1122C1.58123 11.1125 1.59675 11.1603 1.56661 11.1826L1.33368 11.3546L1.42106 11.6307C1.4324 11.6664 1.39167 11.696 1.36115 11.6742L1.12561 11.5058L0.890061 11.6742C0.859546 11.696 0.818905 11.6664 0.830155 11.6307L0.91753 11.3547L0.684609 11.1826C0.654468 11.1603 0.669984 11.1125 0.707483 11.1122L0.997029 11.11L1.08862 10.8353C1.10044 10.7998 1.15069 10.7998 1.16259 10.8353Z" fill="#F5F5F5"/>
<path d="M2.27819 5.79214L2.36979 6.06683L2.65933 6.06903C2.69683 6.06936 2.71235 6.11717 2.68221 6.13944L2.44929 6.31147L2.53666 6.58752C2.548 6.62324 2.50727 6.65286 2.47675 6.63102L2.24121 6.46264L2.00566 6.63102C1.97515 6.65282 1.93451 6.62324 1.94576 6.58752L2.03313 6.31147L1.80021 6.13944C1.77007 6.11712 1.78558 6.06936 1.82308 6.06903L2.11263 6.06683L2.20422 5.79214C2.21604 5.7566 2.26633 5.7566 2.27819 5.79214Z" fill="#F5F5F5"/>
<path d="M2.27819 7.22895L2.36979 7.50363L2.65933 7.50584C2.69683 7.50617 2.71235 7.55398 2.68221 7.57624L2.44929 7.74828L2.53666 8.02432C2.548 8.06004 2.50727 8.08967 2.47675 8.06782L2.24121 7.89945L2.00566 8.06782C1.97515 8.08962 1.93451 8.06009 1.94576 8.02432L2.03313 7.74828L1.80021 7.57624C1.77007 7.55403 1.78558 7.50617 1.82308 7.50584L2.11263 7.50363L2.20422 7.22895C2.21604 7.19337 2.26633 7.19337 2.27819 7.22895Z" fill="#F5F5F5"/>
<path d="M2.27819 8.6662L2.36979 8.94089L2.65933 8.94309C2.69683 8.94342 2.71235 8.99119 2.68221 9.0135L2.44929 9.18553L2.53666 9.46158C2.548 9.4973 2.50727 9.52693 2.47675 9.50508L2.24121 9.33671L2.00566 9.50508C1.97515 9.52688 1.93451 9.4973 1.94576 9.46158L2.03313 9.18553L1.80021 9.0135C1.77007 8.99119 1.78558 8.94342 1.82308 8.94309L2.11263 8.94089L2.20422 8.6662C2.21604 8.63062 2.26633 8.63062 2.27819 8.6662Z" fill="#F5F5F5"/>
<path d="M2.27819 10.103L2.36979 10.3777L2.65933 10.3799C2.69683 10.3802 2.71235 10.428 2.68221 10.4503L2.44929 10.6223L2.53666 10.8984C2.548 10.9341 2.50727 10.9637 2.47675 10.9419L2.24121 10.7735L2.00566 10.9419C1.97515 10.9637 1.93451 10.9341 1.94576 10.8984L2.03313 10.6223L1.80021 10.4503C1.77007 10.428 1.78558 10.3802 1.82308 10.3799L2.11263 10.3777L2.20422 10.103C2.21604 10.0674 2.26633 10.0674 2.27819 10.103Z" fill="#F5F5F5"/>
<path d="M3.39282 5.08766L3.48441 5.36235L3.77396 5.36455C3.81146 5.36488 3.82697 5.41269 3.79683 5.43496L3.56391 5.60694L3.65128 5.88299C3.66263 5.91871 3.62189 5.94833 3.59138 5.92649L3.35583 5.75811L3.12029 5.92649C3.08977 5.94833 3.04913 5.91871 3.06038 5.88299L3.14775 5.60694L2.91483 5.43496C2.88469 5.41264 2.90021 5.36483 2.93771 5.36455L3.22725 5.36235L3.31885 5.08766C3.33066 5.05208 3.38096 5.05208 3.39282 5.08766Z" fill="#F5F5F5"/>
<path d="M3.39282 6.52455L3.48441 6.79924L3.77396 6.80144C3.81146 6.80177 3.82697 6.84953 3.79683 6.87185L3.56391 7.04388L3.65128 7.31992C3.66263 7.35564 3.62189 7.38527 3.59138 7.36342L3.35583 7.19505L3.12029 7.36342C3.08977 7.38522 3.04913 7.35564 3.06038 7.31992L3.14775 7.04388L2.91483 6.87185C2.88469 6.84953 2.90021 6.80177 2.93771 6.80144L3.22725 6.79924L3.31885 6.52455C3.33066 6.48902 3.38096 6.48902 3.39282 6.52455Z" fill="#F5F5F5"/>
<path d="M3.39282 7.96137L3.48441 8.23606L3.77396 8.23826C3.81146 8.23859 3.82697 8.28635 3.79683 8.30867L3.56391 8.4807L3.65128 8.75674C3.66263 8.79246 3.62189 8.82209 3.59138 8.80024L3.35583 8.63187L3.12029 8.80024C3.08977 8.82204 3.04913 8.79251 3.06038 8.75674L3.14775 8.4807L2.91483 8.30867C2.88469 8.28635 2.90021 8.23859 2.93771 8.23826L3.22725 8.23606L3.31885 7.96137C3.33066 7.92579 3.38096 7.92579 3.39282 7.96137Z" fill="#F5F5F5"/>
<path d="M3.39282 9.39862L3.48441 9.67331L3.77396 9.67552C3.81146 9.67584 3.82697 9.72366 3.79683 9.74592L3.56391 9.91796L3.65128 10.194C3.66263 10.2297 3.62189 10.2593 3.59138 10.2375L3.35583 10.0691L3.12029 10.2375C3.08977 10.2593 3.04913 10.2297 3.06038 10.194L3.14775 9.91796L2.91483 9.74592C2.88469 9.7237 2.90021 9.67584 2.93771 9.67552L3.22725 9.67331L3.31885 9.39862C3.33066 9.36305 3.38096 9.36305 3.39282 9.39862Z" fill="#F5F5F5"/>
<path d="M3.39282 10.8354L3.48441 11.1101L3.77396 11.1123C3.81146 11.1126 3.82697 11.1604 3.79683 11.1827L3.56391 11.3547L3.65128 11.6308C3.66263 11.6665 3.62189 11.6961 3.59138 11.6743L3.35583 11.5059L3.12029 11.6743C3.08977 11.6961 3.04913 11.6665 3.06038 11.6308L3.14775 11.3547L2.91483 11.1827C2.88469 11.1604 2.90021 11.1126 2.93771 11.1123L3.22725 11.1101L3.31885 10.8354C3.33066 10.7999 3.38096 10.7999 3.39282 10.8354Z" fill="#F5F5F5"/>
<path d="M4.50756 5.79214L4.59916 6.06683L4.8887 6.06903C4.9262 6.06936 4.94172 6.11717 4.91158 6.13944L4.67866 6.31147L4.76603 6.58752C4.77738 6.62324 4.73664 6.65286 4.70613 6.63102L4.47058 6.46264L4.23503 6.63102C4.20452 6.65282 4.16388 6.62324 4.17513 6.58752L4.2625 6.31147L4.02958 6.13944C3.99944 6.11712 4.01495 6.06936 4.05245 6.06903L4.342 6.06683L4.4336 5.79214C4.44536 5.7566 4.4957 5.7566 4.50756 5.79214Z" fill="#F5F5F5"/>
<path d="M4.50756 7.22895L4.59916 7.50363L4.8887 7.50584C4.9262 7.50617 4.94172 7.55398 4.91158 7.57624L4.67866 7.74828L4.76603 8.02432C4.77738 8.06004 4.73664 8.08967 4.70613 8.06782L4.47058 7.89945L4.23503 8.06782C4.20452 8.08962 4.16388 8.06009 4.17513 8.02432L4.2625 7.74828L4.02958 7.57624C3.99944 7.55403 4.01495 7.50617 4.05245 7.50584L4.342 7.50363L4.4336 7.22895C4.44536 7.19337 4.4957 7.19337 4.50756 7.22895Z" fill="#F5F5F5"/>
<path d="M4.50756 8.6662L4.59916 8.94089L4.8887 8.94309C4.9262 8.94342 4.94172 8.99119 4.91158 9.0135L4.67866 9.18553L4.76603 9.46158C4.77738 9.4973 4.73664 9.52693 4.70613 9.50508L4.47058 9.33671L4.23503 9.50508C4.20452 9.52688 4.16388 9.4973 4.17513 9.46158L4.2625 9.18553L4.02958 9.0135C3.99944 8.99119 4.01495 8.94342 4.05245 8.94309L4.342 8.94089L4.4336 8.6662C4.44536 8.63062 4.4957 8.63062 4.50756 8.6662Z" fill="#F5F5F5"/>
<path d="M4.50756 10.103L4.59916 10.3777L4.8887 10.3799C4.9262 10.3802 4.94172 10.428 4.91158 10.4503L4.67866 10.6223L4.76603 10.8984C4.77738 10.9341 4.73664 10.9637 4.70613 10.9419L4.47058 10.7735L4.23503 10.9419C4.20452 10.9637 4.16388 10.9341 4.17513 10.8984L4.2625 10.6223L4.02958 10.4503C3.99944 10.428 4.01495 10.3802 4.05245 10.3799L4.342 10.3777L4.4336 10.103C4.44536 10.0674 4.4957 10.0674 4.50756 10.103Z" fill="#F5F5F5"/>
<path d="M5.62419 5.0879L5.71578 5.36258L6.00533 5.36479C6.04283 5.36511 6.05835 5.41293 6.02821 5.43519L5.79528 5.60718L5.88266 5.88322C5.894 5.91894 5.85327 5.94857 5.82275 5.92672L5.58716 5.7584L5.35161 5.92677C5.32109 5.94861 5.28045 5.91899 5.2917 5.88327L5.37908 5.60722L5.14616 5.43524C5.11602 5.41293 5.13153 5.36511 5.16903 5.36483L5.45858 5.36263L5.55017 5.08794C5.56203 5.05232 5.61233 5.05232 5.62419 5.0879Z" fill="#F5F5F5"/>
<path d="M5.62419 6.52455L5.71578 6.79924L6.00533 6.80144C6.04283 6.80177 6.05835 6.84953 6.02821 6.87185L5.79528 7.04388L5.88266 7.31992C5.894 7.35564 5.85327 7.38527 5.82275 7.36342L5.58716 7.19505L5.35161 7.36342C5.32109 7.38522 5.28045 7.35564 5.2917 7.31992L5.37908 7.04388L5.14616 6.87185C5.11602 6.84953 5.13153 6.80177 5.16903 6.80144L5.45858 6.79924L5.55017 6.52455C5.56203 6.48902 5.61233 6.48902 5.62419 6.52455Z" fill="#F5F5F5"/>
<path d="M5.62419 7.96125L5.71578 8.23594L6.00533 8.23814C6.04283 8.23847 6.05835 8.28624 6.02821 8.30855L5.79528 8.48058L5.88266 8.75663C5.894 8.79235 5.85327 8.82197 5.82275 8.80013L5.58716 8.63171L5.35161 8.80008C5.32109 8.82188 5.28045 8.7923 5.2917 8.75658L5.37908 8.48053L5.14616 8.3085C5.11602 8.28619 5.13153 8.23842 5.16903 8.2381L5.45858 8.23589L5.55017 7.96121C5.56203 7.92567 5.61233 7.92567 5.62419 7.96125Z" fill="#F5F5F5"/>
<path d="M5.62419 9.39862L5.71578 9.67331L6.00533 9.67552C6.04283 9.67584 6.05835 9.72366 6.02821 9.74592L5.79528 9.91796L5.88266 10.194C5.894 10.2297 5.85327 10.2593 5.82275 10.2375L5.58716 10.0691L5.35161 10.2375C5.32109 10.2593 5.28045 10.2297 5.2917 10.194L5.37908 9.91796L5.14616 9.74592C5.11602 9.7237 5.13153 9.67584 5.16903 9.67552L5.45858 9.67331L5.55017 9.39862C5.56203 9.36305 5.61233 9.36305 5.62419 9.39862Z" fill="#F5F5F5"/>
<path d="M5.62419 10.8354L5.71578 11.1101L6.00533 11.1123C6.04283 11.1126 6.05835 11.1604 6.02821 11.1827L5.79528 11.3547L5.88266 11.6308C5.894 11.6665 5.85327 11.6961 5.82275 11.6743L5.58716 11.5059L5.35161 11.6743C5.32109 11.6961 5.28045 11.6665 5.2917 11.6308L5.37908 11.3547L5.14616 11.1827C5.11602 11.1604 5.13153 11.1126 5.16903 11.1123L5.45858 11.1101L5.55017 10.8354C5.56203 10.7999 5.61233 10.7999 5.62419 10.8354Z" fill="#F5F5F5"/>
<path d="M6.7379 5.79214L6.8295 6.06683L7.11904 6.06903C7.15654 6.06936 7.17206 6.11717 7.14191 6.13944L6.909 6.31147L6.99637 6.58752C7.00771 6.62324 6.96698 6.65286 6.93646 6.63102L6.70092 6.46264L6.46538 6.63102C6.43486 6.65282 6.39422 6.62324 6.40547 6.58752L6.49284 6.31147L6.25993 6.13944C6.22979 6.11712 6.2453 6.06936 6.2828 6.06903L6.57234 6.06683L6.66394 5.79214C6.6758 5.7566 6.72605 5.7566 6.7379 5.79214Z" fill="#F5F5F5"/>
<path d="M6.7379 7.22895L6.8295 7.50363L7.11904 7.50584C7.15654 7.50617 7.17206 7.55398 7.14191 7.57624L6.909 7.74828L6.99637 8.02432C7.00771 8.06004 6.96698 8.08967 6.93646 8.06782L6.70092 7.89945L6.46538 8.06782C6.43486 8.08962 6.39422 8.06009 6.40547 8.02432L6.49284 7.74828L6.25993 7.57624C6.22979 7.55403 6.2453 7.50617 6.2828 7.50584L6.57234 7.50363L6.66394 7.22895C6.6758 7.19337 6.72605 7.19337 6.7379 7.22895Z" fill="#F5F5F5"/>
<path d="M6.7379 8.6662L6.8295 8.94089L7.11904 8.94309C7.15654 8.94342 7.17206 8.99119 7.14191 9.0135L6.909 9.18553L6.99637 9.46158C7.00771 9.4973 6.96698 9.52693 6.93646 9.50508L6.70092 9.33671L6.46538 9.50508C6.43486 9.52688 6.39422 9.4973 6.40547 9.46158L6.49284 9.18553L6.25993 9.0135C6.22979 8.99119 6.2453 8.94342 6.2828 8.94309L6.57234 8.94089L6.66394 8.6662C6.6758 8.63062 6.72605 8.63062 6.7379 8.6662Z" fill="#F5F5F5"/>
<path d="M6.7379 10.103L6.8295 10.3777L7.11904 10.3799C7.15654 10.3802 7.17206 10.428 7.14191 10.4503L6.909 10.6223L6.99637 10.8984C7.00771 10.9341 6.96698 10.9637 6.93646 10.9419L6.70092 10.7735L6.46538 10.9419C6.43486 10.9637 6.39422 10.9341 6.40547 10.8984L6.49284 10.6223L6.25993 10.4503C6.22979 10.428 6.2453 10.3802 6.2828 10.3799L6.57234 10.3777L6.66394 10.103C6.6758 10.0674 6.72605 10.0674 6.7379 10.103Z" fill="#F5F5F5"/>
<path d="M7.85448 5.08766L7.94607 5.36235L8.23562 5.36455C8.27312 5.36488 8.28863 5.41269 8.25849 5.43496L8.02557 5.60694L8.11295 5.88299C8.12429 5.91871 8.08356 5.94833 8.05304 5.92649L7.8175 5.75811L7.58195 5.92649C7.55144 5.94833 7.5108 5.91871 7.52205 5.88299L7.60942 5.60694L7.3765 5.43496C7.34636 5.41264 7.36188 5.36483 7.39938 5.36455L7.68892 5.36235L7.78051 5.08766C7.79228 5.05208 7.84262 5.05208 7.85448 5.08766Z" fill="#F5F5F5"/>
<path d="M7.85448 6.52455L7.94607 6.79924L8.23562 6.80144C8.27312 6.80177 8.28863 6.84953 8.25849 6.87185L8.02557 7.04388L8.11295 7.31992C8.12429 7.35564 8.08356 7.38527 8.05304 7.36342L7.8175 7.19505L7.58195 7.36342C7.55144 7.38522 7.5108 7.35564 7.52205 7.31992L7.60942 7.04388L7.3765 6.87185C7.34636 6.84953 7.36188 6.80177 7.39938 6.80144L7.68892 6.79924L7.78051 6.52455C7.79228 6.48902 7.84262 6.48902 7.85448 6.52455Z" fill="#F5F5F5"/>
<path d="M7.85448 7.96137L7.94607 8.23606L8.23562 8.23826C8.27312 8.23859 8.28863 8.28635 8.25849 8.30867L8.02557 8.4807L8.11295 8.75674C8.12429 8.79246 8.08356 8.82209 8.05304 8.80024L7.8175 8.63187L7.58195 8.80024C7.55144 8.82204 7.5108 8.79251 7.52205 8.75674L7.60942 8.4807L7.3765 8.30867C7.34636 8.28635 7.36188 8.23859 7.39938 8.23826L7.68892 8.23606L7.78051 7.96137C7.79228 7.92579 7.84262 7.92579 7.85448 7.96137Z" fill="#F5F5F5"/>
<path d="M7.85448 9.39862L7.94607 9.67331L8.23562 9.67552C8.27312 9.67584 8.28863 9.72366 8.25849 9.74592L8.02557 9.91796L8.11295 10.194C8.12429 10.2297 8.08356 10.2593 8.05304 10.2375L7.8175 10.0691L7.58195 10.2375C7.55144 10.2593 7.5108 10.2297 7.52205 10.194L7.60942 9.91796L7.3765 9.74592C7.34636 9.7237 7.36188 9.67584 7.39938 9.67552L7.68892 9.67331L7.78051 9.39862C7.79228 9.36305 7.84262 9.36305 7.85448 9.39862Z" fill="#F5F5F5"/>
<path d="M7.85448 10.8354L7.94607 11.1101L8.23562 11.1123C8.27312 11.1126 8.28863 11.1604 8.25849 11.1827L8.02557 11.3547L8.11295 11.6308C8.12429 11.6665 8.08356 11.6961 8.05304 11.6743L7.8175 11.5059L7.58195 11.6743C7.55144 11.6961 7.5108 11.6665 7.52205 11.6308L7.60942 11.3547L7.3765 11.1827C7.34636 11.1604 7.36188 11.1126 7.39938 11.1123L7.68892 11.1101L7.78051 10.8354C7.79228 10.7999 7.84262 10.7999 7.85448 10.8354Z" fill="#F5F5F5"/>
<path d="M8.97021 5.79214L9.0618 6.06683L9.35135 6.06903C9.38885 6.06936 9.40436 6.11717 9.37422 6.13944L9.1413 6.31147L9.22867 6.58752C9.24002 6.62324 9.19928 6.65286 9.16877 6.63102L8.93322 6.46264L8.69768 6.63102C8.66716 6.65282 8.62652 6.62324 8.63777 6.58752L8.72515 6.31147L8.49223 6.13944C8.46209 6.11712 8.4776 6.06936 8.5151 6.06903L8.80465 6.06683L8.89624 5.79214C8.90805 5.7566 8.95835 5.7566 8.97021 5.79214Z" fill="#F5F5F5"/>
<path d="M8.97021 7.22895L9.0618 7.50363L9.35135 7.50584C9.38885 7.50617 9.40436 7.55398 9.37422 7.57624L9.1413 7.74828L9.22867 8.02432C9.24002 8.06004 9.19928 8.08967 9.16877 8.06782L8.93322 7.89945L8.69768 8.06782C8.66716 8.08962 8.62652 8.06009 8.63777 8.02432L8.72515 7.74828L8.49223 7.57624C8.46209 7.55403 8.4776 7.50617 8.5151 7.50584L8.80465 7.50363L8.89624 7.22895C8.90805 7.19337 8.95835 7.19337 8.97021 7.22895Z" fill="#F5F5F5"/>
<path d="M8.97021 8.6662L9.0618 8.94089L9.35135 8.94309C9.38885 8.94342 9.40436 8.99119 9.37422 9.0135L9.1413 9.18553L9.22867 9.46158C9.24002 9.4973 9.19928 9.52693 9.16877 9.50508L8.93322 9.33671L8.69768 9.50508C8.66716 9.52688 8.62652 9.4973 8.63777 9.46158L8.72515 9.18553L8.49223 9.0135C8.46209 8.99119 8.4776 8.94342 8.5151 8.94309L8.80465 8.94089L8.89624 8.6662C8.90805 8.63062 8.95835 8.63062 8.97021 8.6662Z" fill="#F5F5F5"/>
<path d="M8.97021 10.103L9.0618 10.3777L9.35135 10.3799C9.38885 10.3802 9.40436 10.428 9.37422 10.4503L9.1413 10.6223L9.22867 10.8984C9.24002 10.9341 9.19928 10.9637 9.16877 10.9419L8.93322 10.7735L8.69768 10.9419C8.66716 10.9637 8.62652 10.9341 8.63777 10.8984L8.72515 10.6223L8.49223 10.4503C8.46209 10.428 8.4776 10.3802 8.5151 10.3799L8.80465 10.3777L8.89624 10.103C8.90805 10.0674 8.95835 10.0674 8.97021 10.103Z" fill="#F5F5F5"/>
<path d="M10.084 5.08766L10.1756 5.36235L10.4651 5.36455C10.5026 5.36488 10.5181 5.41269 10.488 5.43496L10.2551 5.60694L10.3425 5.88299C10.3538 5.91871 10.3131 5.94833 10.2825 5.92649L10.047 5.75811L9.81145 5.92649C9.78093 5.94833 9.74029 5.91871 9.75154 5.88299L9.83892 5.60694L9.606 5.43496C9.57585 5.41264 9.59137 5.36483 9.62887 5.36455L9.91842 5.36235L10.01 5.08766C10.0218 5.05208 10.0721 5.05208 10.084 5.08766Z" fill="#F5F5F5"/>
<path d="M10.084 6.52455L10.1756 6.79924L10.4651 6.80144C10.5026 6.80177 10.5181 6.84953 10.488 6.87185L10.2551 7.04388L10.3425 7.31992C10.3538 7.35564 10.3131 7.38527 10.2825 7.36342L10.047 7.19505L9.81145 7.36342C9.78093 7.38522 9.74029 7.35564 9.75154 7.31992L9.83892 7.04388L9.606 6.87185C9.57585 6.84953 9.59137 6.80177 9.62887 6.80144L9.91842 6.79924L10.01 6.52455C10.0218 6.48902 10.0721 6.48902 10.084 6.52455Z" fill="#F5F5F5"/>
<path d="M10.084 7.96137L10.1756 8.23606L10.4651 8.23826C10.5026 8.23859 10.5181 8.28635 10.488 8.30867L10.2551 8.4807L10.3425 8.75674C10.3538 8.79246 10.3131 8.82209 10.2825 8.80024L10.047 8.63187L9.81145 8.80024C9.78093 8.82204 9.74029 8.79251 9.75154 8.75674L9.83892 8.4807L9.606 8.30867C9.57585 8.28635 9.59137 8.23859 9.62887 8.23826L9.91842 8.23606L10.01 7.96137C10.0218 7.92579 10.0721 7.92579 10.084 7.96137Z" fill="#F5F5F5"/>
<path d="M10.084 9.39862L10.1756 9.67331L10.4651 9.67552C10.5026 9.67584 10.5181 9.72366 10.488 9.74592L10.2551 9.91796L10.3425 10.194C10.3538 10.2297 10.3131 10.2593 10.2825 10.2375L10.047 10.0691L9.81145 10.2375C9.78093 10.2593 9.74029 10.2297 9.75154 10.194L9.83892 9.91796L9.606 9.74592C9.57585 9.7237 9.59137 9.67584 9.62887 9.67552L9.91842 9.67331L10.01 9.39862C10.0218 9.36305 10.0721 9.36305 10.084 9.39862Z" fill="#F5F5F5"/>
<path d="M10.084 10.8354L10.1756 11.1101L10.4651 11.1123C10.5026 11.1126 10.5181 11.1604 10.488 11.1827L10.2551 11.3547L10.3425 11.6308C10.3538 11.6665 10.3131 11.6961 10.2825 11.6743L10.047 11.5059L9.81145 11.6743C9.78093 11.6961 9.74029 11.6665 9.75154 11.6308L9.83892 11.3547L9.606 11.1827C9.57585 11.1604 9.59137 11.1126 9.62887 11.1123L9.91842 11.1101L10.01 10.8354C10.0218 10.7999 10.0721 10.7999 10.084 10.8354Z" fill="#F5F5F5"/>
</svg>

<svg xmlns="http://www.w3.org/2000/svg" xmlns:xlink="http://www.w3.org/1999/xlink" width="24" height="24" fill="none" xmlns:v="https://vecta.io/nano"><path d="M22.203 4.138H1.797A1.8 1.8 0 0 0 0 5.936v12.129a1.8 1.8 0 0 0 1.797 1.797h20.405A1.8 1.8 0 0 0 24 18.065V5.936a1.8 1.8 0 0 0-1.797-1.797z" fill="#f5f5f5"/><path d="M.099 5.348h23.802a1.8 1.8 0 0 0-1.698-1.21H1.797a1.8 1.8 0 0 0-1.699 1.21zM24 8.977H0v1.21h24v-1.21zm0-2.42H0v1.21h24v-1.21zM0 12.191c0 .229.185.414.414.414H24v-1.21H0v.796zm24 4.043H0v1.209h24v-1.209zm-.099 2.419H.099a1.8 1.8 0 0 0 1.699 1.21h20.405a1.8 1.8 0 0 0 1.698-1.21zM24 13.815H0v1.21h24v-1.21z" fill="#ff4b55"/><path d="M.414 12.605h10.345c.229 0 .414-.185.414-.414V4.552c0-.229-.185-.414-.414-.414H1.797A1.8 1.8 0 0 0 0 5.936v6.256c0 .229.185.414.414.414z" fill="#41479b"/><g fill="#f5f5f5"><path d="M1.163 5.088l.092.275.29.002c.037 0 .053.048.023.07l-.233.172.087.276c.011.036-.029.065-.06.043l-.236-.168-.236.168c-.031.022-.071-.008-.06-.044l.087-.276-.233-.172c-.03-.022-.015-.07.023-.07l.29-.002.092-.275c.012-.036.062-.036.074 0zm0 1.437l.092.275.29.002c.037 0 .053.048.023.07l-.233.172.087.276c.011.036-.029.065-.06.043l-.236-.168-.236.168c-.03.022-.071-.007-.06-.043l.087-.276-.233-.172c-.03-.022-.015-.07.023-.07l.29-.002.092-.275c.012-.036.062-.036.074 0z"/><use xlink:href="#B"/><use xlink:href="#B" y="1.437"/><use xlink:href="#C"/><use xlink:href="#C" x="1.115" y="-5.043"/><use xlink:href="#B" x="1.115" y="-0.733"/><use xlink:href="#B" x="1.115" y="0.704"/><use xlink:href="#B" x="1.115" y="2.141"/><use xlink:href="#B" x="2.23" y="-2.874"/><use xlink:href="#B" x="2.23" y="-1.437"/><use xlink:href="#B" x="2.23" y="-0.001"/><use xlink:href="#B" x="2.23" y="1.437"/><use xlink:href="#B" x="2.23" y="2.873"/><use xlink:href="#C" x="3.345" y="-5.043"/><use xlink:href="#B" x="3.345" y="-0.733"/><use xlink:href="#B" x="3.345" y="0.704"/><use xlink:href="#B" x="3.345" y="2.141"/><path d="M5.624 5.088l.092.275.29.002c.038 0 .053.048.023.07l-.233.172.087.276c.011.036-.029.065-.06.044l-.236-.168-.236.168c-.031.022-.071-.008-.06-.043l.087-.276-.233-.172c-.03-.022-.015-.07.023-.07l.29-.002.092-.275c.012-.036.062-.036.074 0z"/><use xlink:href="#D"/><use xlink:href="#D" y="1.436"/><use xlink:href="#D" y="2.874"/><use xlink:href="#D" y="4.31"/><use xlink:href="#C" x="5.575" y="-5.043"/><use xlink:href="#B" x="5.575" y="-0.733"/><use xlink:href="#B" x="5.575" y="0.704"/><use xlink:href="#B" x="5.575" y="2.141"/><use xlink:href="#B" x="6.691" y="-2.874"/><use xlink:href="#B" x="6.691" y="-1.437"/><use xlink:href="#B" x="6.691" y="-0.001"/><use xlink:href="#B" x="6.691" y="1.437"/><use xlink:href="#B" x="6.691" y="2.873"/><use xlink:href="#C" x="7.807" y="-5.043"/><use xlink:href="#B" x="7.807" y="-0.733"/><use xlink:href="#B" x="7.807" y="0.704"/><use xlink:href="#B" x="7.807" y="2.141"/><use xlink:href="#B" x="8.921" y="-2.874"/><use xlink:href="#B" x="8.921" y="-1.437"/><use xlink:href="#B" x="8.921" y="-0.001"/><use xlink:href="#B" x="8.921" y="1.437"/><use xlink:href="#B" x="8.921" y="2.873"/></g><defs ><path id="B" d="M1.163 7.962l.092.275.29.002c.037 0 .053.048.023.07l-.233.172.087.276c.011.036-.029.065-.06.043l-.236-.168-.236.168c-.031.022-.071-.008-.06-.043l.087-.276-.233-.172c-.03-.022-.015-.07.023-.07l.29-.002.092-.275c.012-.036.062-.036.074 0z"/><path id="C" d="M1.163 10.835l.092.275.29.002c.037 0 .053.048.023.07l-.233.172.087.276c.011.036-.029.065-.06.044l-.236-.168-.236.168c-.031.022-.071-.008-.06-.044l.087-.276-.233-.172c-.03-.022-.015-.07.023-.07l.29-.002.092-.275c.012-.036.062-.036.074 0z"/><path id="D" d="M5.624 6.525l.092.275.29.002c.038 0 .053.048.023.07l-.233.172.087.276c.011.036-.029.065-.06.043l-.236-.168-.236.168c-.031.022-.071-.008-.06-.043l.087-.276-.233-.172c-.03-.022-.015-.07.023-.07l.29-.002.092-.275c.012-.036.062-.036.074 0z"/></defs></svg>
